www/assets/icons/remove_from_queue.svg

<svg width="24" height="24" viewBox="0 0 24 24" xmlns="http://www.w3.org/2000/svg" fill='currentColor'><path d="M21 3H3C1.89 3 1 3.89 1 5V17C1 18.1 1.89 19 3 19H8V21H16V19H21C22.1 19 22.99 18.1 22.99 17L23 5C23 3.89 22.1 3 21 3ZM21 17H3V5H21V17ZM16 10V12H8V10H16Z"/></svg>

<svg xmlns="http://www.w3.org/2000/svg" width="24" height="24" viewBox="0 0 24 24" fill='currentColor'><path d="M21 3H3c-1.11 0-2 .89-2 2v12a2 2 0 0 0 2 2h5v2h8v-2h5c1.1 0 1.99-.9 1.99-2L23 5a2 2 0 0 0-2-2m0 14H3V5h18zm-5-7v2H8v-2z"/></svg>
